X: 305
T:Heaton's Chapel
M:C|
L:1/8
Q:170
C:Kevin Crawford
R:Reel
D:Lunasa "Otherworld"
Z:Aaron Clegg
K:EDor
E2B2 BAFB | BABc dedA | D2A2 AGFA | BdAB FED/2E/2F |
E2B2 BAFB | BABc dedB | ABdB fedf |1 edBA G2FD :|2 edBA Beee |:
g2e2 edBA | Beee edBe | dBAF AFDE | F/2E/2DFA dAB/2c/2d |
g3   e edBA |1 Beee edBe | dFFF DEFA | dBAF BEEE :|
2 Beee edBG| BABc dfed | dBAF G2FD||

